src/assets/svg-icons/plus-icon.svg

<svg width="77" height="76" viewBox="0 0 77 76" fill="none" xmlns="http://www.w3.org/2000/svg">
<g filter="url(#filter0_d_2569_3128)">
<circle cx="38.5" cy="34" r="33.75" fill="url(#paint0_radial_2569_3128)" stroke="url(#paint1_radial_2569_3128)" stroke-width="0.5"/>
<g clip-path="url(#clip0_2569_3128)" filter="url(#filter1_d_2569_3128)">
<path d="M51.0499 32.05H39.4501V20.4499C39.4501 19.6497 38.8004 19 37.9999 19C37.1997 19 36.55 19.6497 36.55 20.4499V32.05H24.9499C24.1497 32.05 23.5 32.6997 23.5 33.4999C23.5 34.3004 24.1497 34.9501 24.9499 34.9501H36.55V46.5499C36.55 47.3504 37.1997 48.0001 37.9999 48.0001C38.8004 48.0001 39.4501 47.3504 39.4501 46.5499V34.9501H51.0499C51.8504 34.9501 52.5001 34.3004 52.5001 33.4999C52.5001 32.6997 51.8504 32.05 51.0499 32.05Z" fill="#D9D9D9"/>
</g>
</g>
<defs>
<filter id="filter0_d_2569_3128" x="0.5" y="0" width="76" height="76" filterUnits="userSpaceOnUse" color-interpolation-filters="sRGB">
<feFlood flood-opacity="0" result="BackgroundImageFix"/>
<feColorMatrix in="SourceAlpha" type="matrix" values="0 0 0 0 0 0 0 0 0 0 0 0 0 0 0 0 0 0 127 0" result="hardAlpha"/>
<feOffset dy="4"/>
<feGaussianBlur stdDeviation="2"/>
<feComposite in2="hardAlpha" operator="out"/>
<feColorMatrix type="matrix" values="0 0 0 0 0 0 0 0 0 0 0 0 0 0 0 0 0 0 0.25 0"/>
<feBlend mode="normal" in2="BackgroundImageFix" result="effect1_dropShadow_2569_3128"/>
<feBlend mode="normal" in="SourceGraphic" in2="effect1_dropShadow_2569_3128" result="shape"/>
</filter>
<filter id="filter1_d_2569_3128" x="19.5" y="19" width="37" height="37" filterUnits="userSpaceOnUse" color-interpolation-filters="sRGB">
<feFlood flood-opacity="0" result="BackgroundImageFix"/>
<feColorMatrix in="SourceAlpha" type="matrix" values="0 0 0 0 0 0 0 0 0 0 0 0 0 0 0 0 0 0 127 0" result="hardAlpha"/>
<feOffset dy="4"/>
<feGaussianBlur stdDeviation="2"/>
<feComposite in2="hardAlpha" operator="out"/>
<feColorMatrix type="matrix" values="0 0 0 0 0 0 0 0 0 0 0 0 0 0 0 0 0 0 0.25 0"/>
<feBlend mode="normal" in2="BackgroundImageFix" result="effect1_dropShadow_2569_3128"/>
<feBlend mode="normal" in="SourceGraphic" in2="effect1_dropShadow_2569_3128" result="shape"/>
</filter>
<radialGradient id="paint0_radial_2569_3128" cx="0" cy="0" r="1" gradientUnits="userSpaceOnUse" gradientTransform="translate(4.50001 -8.79767) rotate(56.931) scale(144.161 2536.15)">
<stop stop-opacity="0.42"/>
<stop offset="1" stop-color="#6C6C6C" stop-opacity="0"/>
</radialGradient>
<radialGradient id="paint1_radial_2569_3128" cx="0" cy="0" r="1" gradientUnits="userSpaceOnUse" gradientTransform="translate(5.70319 -0.0364984) rotate(45.8762) scale(111.163 161.681)">
<stop stop-color="white" stop-opacity="0.8"/>
<stop offset="1" stop-color="white" stop-opacity="0"/>
</radialGradient>
<clipPath id="clip0_2569_3128">
<rect width="29" height="29" fill="white" transform="translate(23.5 19)"/>
</clipPath>
</defs>
</svg>

<svg xmlns="http://www.w3.org/2000/svg" width="77" height="76" fill="none" viewBox="0 0 77 76"><g filter="url(#a)"><circle cx="38.5" cy="34" r="33.75" fill="url(#b)" stroke="url(#c)" stroke-width=".5"/><g clip-path="url(#d)" filter="url(#e)"><path fill="#D9D9D9" d="M51.05 32.05h-11.6v-11.6a1.45 1.45 0 0 0-2.9 0v11.6h-11.6a1.45 1.45 0 0 0 0 2.9h11.6v11.6a1.45 1.45 0 0 0 2.9 0v-11.6h11.6a1.45 1.45 0 0 0 0-2.9Z"/></g></g><defs><radialGradient id="b" cx="0" cy="0" r="1" gradientTransform="rotate(56.931 10.363 -.249) scale(144.161 2536.15)" gradientUnits="userSpaceOnUse"><stop stop-opacity=".42"/><stop offset="1" stop-color="#6C6C6C" stop-opacity="0"/></radialGradient><radialGradient id="c" cx="0" cy="0" r="1" gradientTransform="rotate(45.876 2.895 6.72) scale(111.163 161.681)" gradientUnits="userSpaceOnUse"><stop stop-color="#fff" stop-opacity=".8"/><stop offset="1" stop-color="#fff" stop-opacity="0"/></radialGradient><filter id="a" width="76" height="76" x=".5" y="0" color-interpolation-filters="sRGB" filterUnits="userSpaceOnUse"><feFlood flood-opacity="0" result="BackgroundImageFix"/><feColorMatrix in="SourceAlpha" result="hardAlpha" values="0 0 0 0 0 0 0 0 0 0 0 0 0 0 0 0 0 0 127 0"/><feOffset dy="4"/><feGaussianBlur stdDeviation="2"/><feComposite in2="hardAlpha" operator="out"/><feColorMatrix values="0 0 0 0 0 0 0 0 0 0 0 0 0 0 0 0 0 0 0.25 0"/><feBlend in2="BackgroundImageFix" result="effect1_dropShadow_2569_3128"/><feBlend in="SourceGraphic" in2="effect1_dropShadow_2569_3128" result="shape"/></filter><filter id="e" width="37" height="37" x="19.5" y="19" color-interpolation-filters="sRGB" filterUnits="userSpaceOnUse"><feFlood flood-opacity="0" result="BackgroundImageFix"/><feColorMatrix in="SourceAlpha" result="hardAlpha" values="0 0 0 0 0 0 0 0 0 0 0 0 0 0 0 0 0 0 127 0"/><feOffset dy="4"/><feGaussianBlur stdDeviation="2"/><feComposite in2="hardAlpha" operator="out"/><feColorMatrix values="0 0 0 0 0 0 0 0 0 0 0 0 0 0 0 0 0 0 0.25 0"/><feBlend in2="BackgroundImageFix" result="effect1_dropShadow_2569_3128"/><feBlend in="SourceGraphic" in2="effect1_dropShadow_2569_3128" result="shape"/></filter><clipPath id="d"><path fill="#fff" d="M23.5 19h29v29h-29z"/></clipPath></defs></svg>
